!!!COM: Claude Goudimel
!!!OMD: Psalm 97: L'Eternel est regnant
**kern	**kern	**kern	**kern
*part4	*part3	*part2	*part1
*staff4	*staff3	*staff2	*staff1
*clefF4	*clefGv2	*clefG2	*clefG2
*k[f#c#]	*k[f#c#]	*k[f#c#]	*k[f#c#]
!!LO:TX:omd:t=
*M4/4	*M4/4	*M4/4	*M4/4
=1	=1	=1	=1
2D	2d	2f#	2a
4G	4d	4g	4b
4B	4d	4g	4dd
=2	=2	=2	=2
4A	4e	4a	4dd
4A	4e	4a	4cc#
2D	2f#	2a	2dd
=3	=3	=3	=3
2r	2r	2r	2r
2D	2f#	2a	2dd
=4	=4	=4	=4
4G	4d	4b	4b
4F#	4f#	4a	4cc#
4D	4f#	4a	4dd
4E	4e	4g	4b
=5	=5	=5	=5
2F#	2c#	2f#	2a
2D	2d	2f#	2a
=6	=6	=6	=6
4D	4f#	4a	4dd
4G	4d	4b	4b
4F#	4f#	4a	4cc#
4D	4f#	[4a	4dd
=7	=7	=7	=7
2E	2e	4a]	2b
.	.	4g#X	.
2AA	2c#	2a	2a
=8	=8	=8	=8
2r	2r	2r	2r
2D	2F#	2A	2d
=9	=9	=9	=9
4D	4A	4d	4f#
4AA	4cn	4e	4a
4Cn	4c	4e	4g
4D	4A	[4d	4f#
=10	=10	=10	=10
2AA	2A	4d]	2e
.	.	4c#	.
2D	2A	2d	2d
=11	=11	=11	=11
2r	2r	2r	2r
2D	2A	2d	2f#
=12	=12	=12	=12
4AA	4A	4c#	4e
4AA	4c#	4e	4a
4D	4d	4f#	4a
4E	4B	4e	4g#X
=13	=13	=13	=13
2AA	2c#	2e	2a
2r	2r	2r	2r
=14	=14	=14	=14
2D	2A	2d	2f#
4AA	4A	4c#	4e
4AA	4c#	4e	4a
=15	=15	=15	=15
4D	4d	4f#	4a
4E	4B	4e	4g#X
2AA	2c#	2e	2a
=16	=16	=16	=16
2r	2r	2r	2r
2D	2A	2d	2f#
=17	=17	=17	=17
4GG	4d	4g	4b
4GG	4d	4g	4b
2D	2d	2f#	2a
=18	=18	=18	=18
2E	2B	2e	2g
4BB	4B	4d	4f#
4BB	4B	4d	4f#
=19	=19	=19	=19
4GG	4d	4g	4b
4GG	4d	4g	4b
2D	2d	2f#	2a
=20	=20	=20	=20
2E	2B	2e	2g
2BB	2B	2d	2f#
=21	=21	=21	=21
2r	2r	2r	2r
2D	2F#	2f#	2a
=22	=22	=22	=22
4BB	4F#	4B	4d
4GG	2E	4B	4g
2AA	.	2A	2f#
.	[4D	.	.
=23	=23	=23	=23
2AA	4D]	2A	2e
.	4C#	.	.
[2D	[2D	[2A	[2d
=24	=24	=24	=24
2D]	2D]	2A]	2d]
2ryy	2ryy	2ryy	2ryy
==	==	==	==
*-	*-	*-	*-
!!!software: music21 v.9.7.1
!!!software: music21 v.8.3.0
!!!RDF**kern: > = above
!!!RDF**kern: < = below
